brandFactory_export/2.Regular/Flecha atras_2Regular.svg

<?xml version="1.0" encoding="UTF-8"?>
<svg width="24px" height="24px" viewBox="0 0 24 24" version="1.1" xmlns="http://www.w3.org/2000/svg" xmlns:xlink="http://www.w3.org/1999/xlink">
    <title>2.Regular/Flecha atras_2Regular</title>
    <g id="Symbols" stroke="none" stroke-width="1" fill="none" fill-rule="evenodd">
        <g id="2.Regular/Flecha-atras_2Regular" fill="#5CB615" fill-rule="nonzero">
            <path d="M22.6117647,10.887395 L3.36134454,10.887395 L12.0504202,1.69747899 C12.4235294,1.28067227 12.3932773,0.642016807 11.9764706,0.265546218 C11.5731092,-0.0974789916 10.9579832,-0.0806722689 10.5781513,0.305882353 L0.275630252,11.2033613 C0.231932773,11.2504202 0.208403361,11.3109244 0.171428571,11.3647059 C0.137815126,11.4151261 0.0974789916,11.4621849 0.0739495798,11.5193277 C0.0268907563,11.6403361 0,11.7680672 0,11.8991597 L0,11.9058824 C0.00336134454,12.0336134 0.0302521008,12.1579832 0.0773109244,12.2789916 C0.100840336,12.3394958 0.141176471,12.3865546 0.178151261,12.4369748 C0.211764706,12.487395 0.231932773,12.5478992 0.275630252,12.594958 L10.3932773,23.297479 C10.7764706,23.7042017 11.4151261,23.7243697 11.8218487,23.3411765 C11.8218487,23.3411765 11.8252101,23.3411765 11.8252101,23.3378151 C12.2319328,22.9546218 12.2487395,22.312605 11.8655462,21.9058824 L3.36134454,12.9109244 L22.6117647,12.9109244 C23.1697479,12.9109244 23.6235294,12.4571429 23.6235294,11.8957983 C23.6235294,11.3378151 23.1697479,10.8840336 22.6117647,10.887395" id="Path"></path>
        </g>
    </g>
</svg>

<svg width="24" height="24" viewBox="0 0 24 24" xmlns="http://www.w3.org/2000/svg"><path d="M22.612 10.887H3.362l8.688-9.19a1.015 1.015 0 00-.074-1.431 1.01 1.01 0 00-1.398.04L.276 11.203c-.044.047-.068.108-.105.162-.033.05-.074.097-.097.154A1.046 1.046 0 000 11.9v.007c.003.128.03.252.077.373.024.06.064.108.101.158.034.05.054.11.098.158l10.117 10.702a1.01 1.01 0 001.429.044s.003 0 .003-.003a1.014 1.014 0 00.04-1.432L3.362 12.91h19.25c.559 0 1.013-.454 1.013-1.015 0-.558-.454-1.012-1.012-1.009" fill="#5CB615" fill-rule="nonzero"/></svg>
